src/Widgets/DataLabelWidget/thumbnail.svg

<svg viewBox="0 0 150 100" fill="none" xmlns="http://www.w3.org/2000/svg">
<g id="data-label">
<path id="Rectangle 1" d="M16 15C16 12.7909 17.7909 11 20 11H131C132.657 11 134 12.3431 134 14V86C134 87.6569 132.657 89 131 89H19C17.3431 89 16 87.6569 16 86V15Z" stroke="#AAAAAA" stroke-width="2" stroke-linecap="round" stroke-dasharray="5 5"/>
<g id="Badge">
<g clip-path="url(#clip0_4_323)">
<rect x="23" y="18" width="36" height="13" rx="6.5" fill="#FF9F00"/>
<path id="DATA" d="M28.7 28.5V21.3H31.03C31.0867 21.3 31.2033 21.3017 31.38 21.305C31.5567 21.3083 31.7267 21.32 31.89 21.34C32.47 21.41 32.9617 21.6117 33.365 21.945C33.7683 22.2783 34.075 22.7017 34.285 23.215C34.495 23.7283 34.6 24.29 34.6 24.9C34.6 25.51 34.495 26.0717 34.285 26.585C34.075 27.0983 33.7683 27.5217 33.365 27.855C32.9617 28.1883 32.47 28.39 31.89 28.46C31.7267 28.48 31.5567 28.4917 31.38 28.495C31.2033 28.4983 31.0867 28.5 31.03 28.5H28.7ZM30.08 27.22H31.03C31.12 27.22 31.2417 27.2183 31.395 27.215C31.5483 27.2083 31.6867 27.1933 31.81 27.17C32.1233 27.1067 32.3783 26.96 32.575 26.73C32.775 26.5 32.9217 26.2233 33.015 25.9C33.1117 25.5767 33.16 25.2433 33.16 24.9C33.16 24.54 33.11 24.1983 33.01 23.875C32.9133 23.5517 32.765 23.2783 32.565 23.055C32.365 22.8317 32.1133 22.69 31.81 22.63C31.6867 22.6033 31.5483 22.5883 31.395 22.585C31.2417 22.5817 31.12 22.58 31.03 22.58H30.08V27.22ZM35.1043 28.5L37.3043 21.3H39.3343L41.5343 28.5H40.1343L38.1743 22.15H38.4343L36.5043 28.5H35.1043ZM36.4243 27V25.73H40.2243V27H36.4243ZM43.5048 28.5V22.57H41.2348V21.3H47.1348V22.57H44.8648V28.5H43.5048ZM47.243 28.5L49.443 21.3H51.473L53.673 28.5H52.273L50.313 22.15H50.573L48.643 28.5H47.243ZM48.563 27V25.73H52.363V27H48.563Z" fill="white"/>
</g>
</g>
<g id="Ebene_1" clip-path="url(#clip1_4_323)">
<path id="Vector" d="M59.88 54.5601H94.67" stroke="#AAAAAA" stroke-width="5.63" stroke-linecap="round" stroke-linejoin="bevel"/>
<path id="Vector_2" d="M58.88 63.0699H85.01" stroke="#AAAAAA" stroke-width="3.75" stroke-linecap="round" stroke-linejoin="bevel"/>
<path id="Vector_3" d="M58.88 69.89H79.6" stroke="#AAAAAA" stroke-width="3.75" stroke-linecap="round" stroke-linejoin="bevel"/>
<path id="Vector_4" d="M58.84 45.8201V37.1801H60.47V44.3001H64.19V45.8201H58.84Z" fill="#AAAAAA"/>
<path id="Vector_5" d="M67.01 46C66.55 46 66.15 45.91 65.83 45.73C65.51 45.55 65.26 45.31 65.1 45.02C64.94 44.73 64.85 44.39 64.85 44.03C64.85 43.73 64.9 43.46 64.99 43.21C65.08 42.96 65.23 42.74 65.44 42.55C65.65 42.36 65.92 42.2 66.27 42.07C66.51 41.98 66.8 41.9 67.13 41.84C67.46 41.77 67.84 41.71 68.26 41.64C68.68 41.58 69.14 41.51 69.65 41.43L69.06 41.75C69.06 41.37 68.97 41.08 68.78 40.9C68.6 40.72 68.29 40.63 67.86 40.63C67.62 40.63 67.37 40.69 67.11 40.8C66.85 40.92 66.67 41.12 66.56 41.42L65.08 40.95C65.24 40.41 65.55 39.98 66 39.64C66.45 39.3 67.07 39.14 67.85 39.14C68.42 39.14 68.93 39.23 69.37 39.4C69.81 39.58 70.15 39.88 70.38 40.31C70.51 40.55 70.58 40.79 70.61 41.03C70.63 41.27 70.65 41.54 70.65 41.83V45.79H69.22V44.46L69.42 44.74C69.1 45.18 68.76 45.49 68.4 45.68C68.03 45.87 67.57 45.97 67.01 45.97V46ZM67.36 44.72C67.66 44.72 67.91 44.67 68.12 44.56C68.33 44.45 68.49 44.33 68.61 44.2C68.73 44.07 68.82 43.95 68.86 43.86C68.94 43.68 68.99 43.48 69.01 43.24C69.02 43.01 69.03 42.81 69.03 42.66L69.51 42.78C69.03 42.86 68.63 42.93 68.33 42.98C68.03 43.03 67.79 43.08 67.6 43.13C67.42 43.17 67.25 43.22 67.11 43.27C66.95 43.33 66.82 43.4 66.72 43.48C66.62 43.55 66.55 43.63 66.5 43.72C66.45 43.81 66.43 43.91 66.43 44.01C66.43 44.16 66.47 44.28 66.54 44.39C66.61 44.5 66.72 44.58 66.86 44.63C67 44.69 67.16 44.71 67.35 44.71L67.36 44.72Z" fill="#AAAAAA"/>
<path id="Vector_6" d="M72.19 45.8201V37.1801H73.83V41.3801H73.63V45.8201H72.19ZM75.38 46.0001C74.74 46.0001 74.2 45.8501 73.77 45.5501C73.34 45.2501 73.01 44.8401 72.79 44.3301C72.57 43.8101 72.46 43.2301 72.46 42.5801C72.46 41.9301 72.57 41.3501 72.78 40.8301C73 40.3101 73.31 39.9101 73.73 39.6101C74.15 39.3101 74.67 39.1601 75.28 39.1601C75.89 39.1601 76.44 39.3101 76.9 39.6001C77.36 39.8901 77.72 40.3001 77.97 40.8101C78.22 41.3201 78.35 41.9101 78.35 42.5701C78.35 43.2301 78.23 43.8001 77.97 44.3201C77.72 44.8401 77.37 45.2401 76.92 45.5401C76.47 45.8401 75.95 45.9901 75.35 45.9901L75.38 46.0001ZM75.12 44.5501C75.47 44.5501 75.76 44.4601 75.98 44.2901C76.2 44.1101 76.37 43.8801 76.48 43.5801C76.59 43.2801 76.64 42.9501 76.64 42.5901C76.64 42.2301 76.58 41.9001 76.47 41.6001C76.36 41.3001 76.18 41.0601 75.95 40.8901C75.72 40.7101 75.42 40.6201 75.05 40.6201C74.71 40.6201 74.43 40.7001 74.22 40.8701C74.01 41.0401 73.86 41.2601 73.76 41.5601C73.66 41.8601 73.62 42.2001 73.62 42.5901C73.62 42.9801 73.67 43.3301 73.76 43.6201C73.85 43.9101 74.01 44.1501 74.23 44.3101C74.45 44.4701 74.74 44.5601 75.1 44.5601L75.12 44.5501Z" fill="#AAAAAA"/>
<path id="Vector_7" d="M82.7 46C82.04 46 81.45 45.86 80.95 45.57C80.45 45.28 80.05 44.89 79.76 44.39C79.47 43.89 79.33 43.31 79.33 42.66C79.33 41.95 79.47 41.34 79.75 40.81C80.03 40.29 80.42 39.88 80.91 39.59C81.4 39.3 81.97 39.15 82.61 39.15C83.29 39.15 83.87 39.31 84.34 39.63C84.82 39.95 85.17 40.4 85.4 40.98C85.63 41.56 85.71 42.24 85.64 43.03H84.03V42.43C84.03 41.77 83.93 41.3 83.72 41.01C83.51 40.72 83.17 40.57 82.69 40.57C82.13 40.57 81.73 40.74 81.46 41.08C81.2 41.42 81.07 41.92 81.07 42.58C81.07 43.18 81.2 43.65 81.46 43.98C81.72 44.31 82.11 44.48 82.62 44.48C82.94 44.48 83.21 44.41 83.44 44.27C83.67 44.13 83.84 43.93 83.96 43.66L85.59 44.13C85.35 44.72 84.96 45.18 84.43 45.51C83.9 45.84 83.33 46 82.7 46ZM80.55 43.04V41.83H84.85V43.04H80.55Z" fill="#AAAAAA"/>
<path id="Vector_8" d="M87.11 45.82V37H88.74V45.82H87.11Z" fill="#AAAAAA"/>
</g>
</g>
<defs>
<clipPath id="clip0_4_323">
<rect x="23" y="18" width="36" height="13" rx="6.5" fill="white"/>
</clipPath>
<clipPath id="clip1_4_323">
<rect width="40.49" height="34.77" fill="white" transform="translate(57 37)"/>
</clipPath>
</defs>
</svg>

<svg xmlns="http://www.w3.org/2000/svg" fill="none" viewBox="0 0 150 100"><path stroke="#AAA" stroke-dasharray="5 5" stroke-linecap="round" stroke-width="2" d="M16 15a4 4 0 0 1 4-4h111a3 3 0 0 1 3 3v72a3 3 0 0 1-3 3H19a3 3 0 0 1-3-3z"/><g clip-path="url(#a)"><rect width="36" height="13" x="23" y="18" fill="#FF9F00" rx="6.5"/><path fill="#fff" d="M28.7 28.5v-7.2h2.33l.35.005q.266.005.51.035.87.105 1.475.605t.92 1.27.315 1.685-.315 1.685-.92 1.27-1.475.605q-.244.03-.51.035l-.35.005zm1.38-1.28h.95q.135 0 .365-.005a3 3 0 0 0 .415-.045 1.32 1.32 0 0 0 .765-.44q.3-.345.44-.83a3.5 3.5 0 0 0 .145-1q0-.54-.15-1.025a2.1 2.1 0 0 0-.445-.82 1.33 1.33 0 0 0-.755-.425 2 2 0 0 0-.415-.045l-.365-.005h-.95zm5.024 1.28 2.2-7.2h2.03l2.2 7.2h-1.4l-1.96-6.35h.26l-1.93 6.35zm1.32-1.5v-1.27h3.8V27zm7.08 1.5v-5.93h-2.27V21.3h5.9v1.27h-2.27v5.93zm3.739 0 2.2-7.2h2.03l2.2 7.2h-1.4l-1.96-6.35h.26l-1.93 6.35zm1.32-1.5v-1.27h3.8V27z"/></g><g clip-path="url(#b)"><path stroke="#AAA" stroke-linecap="round" stroke-linejoin="bevel" stroke-width="5.63" d="M59.88 54.56h34.79"/><path stroke="#AAA" stroke-linecap="round" stroke-linejoin="bevel" stroke-width="3.75" d="M58.88 63.07h26.13m-26.13 6.82H79.6"/><path fill="#AAA" d="M58.84 45.82v-8.64h1.63v7.12h3.72v1.52zm8.17.18c-.46 0-.86-.09-1.18-.27a1.85 1.85 0 0 1-.73-.71c-.16-.29-.25-.63-.25-.99 0-.3.05-.57.14-.82q.135-.375.45-.66c.21-.19.48-.35.83-.48.24-.09.53-.17.86-.23.33-.07.71-.13 1.13-.2.42-.06.88-.13 1.39-.21l-.59.32c0-.38-.09-.67-.28-.85-.18-.18-.49-.27-.92-.27-.24 0-.49.06-.75.17-.26.12-.44.32-.55.62l-1.48-.47c.16-.54.47-.97.92-1.31s1.07-.5 1.85-.5c.57 0 1.08.09 1.52.26.44.18.78.48 1.01.91.13.24.2.48.23.72.02.24.04.51.04.8v3.96h-1.43v-1.33l.2.28c-.32.44-.66.75-1.02.94-.37.19-.83.29-1.39.29zm.35-1.28c.3 0 .55-.05.76-.16s.37-.23.49-.36.21-.25.25-.34c.08-.18.13-.38.15-.62.01-.23.02-.43.02-.58l.48.12c-.48.08-.88.15-1.18.2s-.54.1-.73.15c-.18.04-.35.09-.49.14q-.24.09-.39.21a.7.7 0 0 0-.22.24.68.68 0 0 0 .04.67c.07.11.18.19.32.24.14.06.3.08.49.08zm4.83 1.1v-8.64h1.64v4.2h-.2v4.44zm3.19.18c-.64 0-1.18-.15-1.61-.45s-.76-.71-.98-1.22c-.22-.52-.33-1.1-.33-1.75s.11-1.23.32-1.75c.22-.52.53-.92.95-1.22s.94-.45 1.55-.45 1.16.15 1.62.44.82.7 1.07 1.21.38 1.1.38 1.76-.12 1.23-.38 1.75c-.25.52-.6.92-1.05 1.22s-.97.45-1.57.45zm-.26-1.45c.35 0 .64-.09.86-.26.22-.18.39-.41.5-.71s.16-.63.16-.99-.06-.69-.17-.99-.29-.54-.52-.71q-.345-.27-.9-.27c-.34 0-.62.08-.83.25s-.36.39-.46.69-.14.64-.14 1.03.05.74.14 1.03.25.53.47.69.51.25.87.25zM82.7 46c-.66 0-1.25-.14-1.75-.43s-.9-.68-1.19-1.18-.43-1.08-.43-1.73c0-.71.14-1.32.42-1.85.28-.52.67-.93 1.16-1.22s1.06-.44 1.7-.44c.68 0 1.26.16 1.73.48.48.32.83.77 1.06 1.35s.31 1.26.24 2.05h-1.61v-.6c0-.66-.1-1.13-.31-1.42s-.55-.44-1.03-.44c-.56 0-.96.17-1.23.51q-.39.51-.39 1.5c0 .6.13 1.07.39 1.4s.65.5 1.16.5c.32 0 .59-.07.82-.21s.4-.34.52-.61l1.63.47c-.24.59-.63 1.05-1.16 1.38s-1.1.49-1.73.49m-2.15-2.96v-1.21h4.3v1.21zm6.56 2.78V37h1.63v8.82z"/></g><defs><clipPath id="a"><rect width="36" height="13" x="23" y="18" fill="#fff" rx="6.5"/></clipPath><clipPath id="b"><path fill="#fff" d="M57 37h40.49v34.77H57z"/></clipPath></defs></svg>
